X:37
T: Graf und Nonne (Die Nonne)
N: Q0155j
O: Suedosteuropa, Rumaenien, Bukowina, Alt - Fratautz
R: Ballade, Standesunterschied, vergebliche Werbung, Liebe, Klage, Tod
M: 6/8
L: 1/8
K: F
C | A2AG2G | F3G2
G | A2Ad2d | c3z2
c | cccfed | d3c2
c | cdcBGc | A3z2

